X: 541
T: Dem-i Visâli O Şûha
C: Kara İsmail Ağa
O: Turkey
F: http://compmusic.upf.edu/node/140
N: sehnaz--yuruksemai--yuruksemai--dem-i_visali--kara_ismail_aga
N: makam= sehnaz
N: form= yuruksemai
N: usul= yuruksemai = 6/8
M: 6/8
L: 1/16
K: C _7/8B ^1/4f ^c ^g
Q: 1/4=108
%%MIDI tuningsystem comma53
A4a8a4 =b4{d'}=c'2b2  | =b2=c'2b2a2 a3gf2g2 a6z2  | \
w:  Dem_ i  vi sâ  |  li  *  o  *  şû *  *  *  ha   | 
=b2=c'2b2a2 g2f2f2e2 b4a2g2  | 
w:  i *  tâ *  *  *  bı  *  ney  | 
g3f{g}f4 f3eg2fe e6z2  | e4e4 ^3/4f2f2d4 =g8  | \
w:  ler *  *  *  *  *  sin   |  yâr   | 
^3/4f4=g8^1/4f2e2 e6z2  | 
w:  yâ   | 
e4=f4 e4d4 d2c2B2{e}dc  | {d}c12z4 =f3=ge2g2  | \
w:  câ  |  *  nım   Ter   | 
e2d2d2c2 c6z2 d3ed2e2  | 
w:  dil *  *  *  li  ter   | 
c2B2B2A2 A6z2 e8  | e4e2=f2 d4a3=g g2f2e2d2  | \
w:  dil *  *  *  li  ter   |  dil *  *  li  te  *  nen   | 
e2=f2e2d2 c2B2{d}c2d2 c2B2B2A2  | 
w:  te  *  nen  *  *  *  *  tâ  *  dir    | 
A8 a3gf2g2 a8  | A4a8a4 =b4{d'}=c'2b2  | \
w:  ney   SAZ  |  Dem_ i  vi sâ  | 
=b2=c'2b2a2 a3gf2g2 a6z2  | 
w:  li  *  o  *  şû *  *  *  ha   | 
=b2=c'2b2a2 g2f2f2e2 b4a2g2  | g3f{g}f4 f3eg2fe e6z2  | 
w:  i *  tâ *  *  *  bı  *  ney  |  ler *  *  *  *  *  sin   | 
e4e4 ^3/4f2f2d4 =g8  | ^3/4f4=g8^1/4f2e2 e6z2  | \
w:  yâr   |  yâ   | 
e4=f4 e4d4 d2c2B2{e}dc  | 
w:  câ  | 
{d}c12z4 =f3=ge2g2  | e2d2d2c2 c6z2 d3ed2e2  | \
w:  *  nım   Ter   |  dil *  *  *  li  ter   | 
c2B2B2A2 A6z2 e8  | 
w:  dil *  *  *  li  ter   | 
e4e2=f2 d4a3=g g2f2e2d2  | e2=f2e2d2 c2B2{d}c2d2 c2B2B2A2  | 
w:  dil *  *  li  te  *  nen   |  te  *  nen  *  *  *  *  tâ  *  dir    | 
A8 ^f3^ed2e2 f8  | d4^f8f4 f8  | a2=g2g2^f2 f2g2f2e2 f2g2f4  | 
w:  ney   SAZ  |  Fe lek te  bir   |  gün  *  i *  se  *  *  *  gör  | 
=g4a4 a3^3/4ff4 a2g4f2  | ^2/4f2e2=f2e2 e14z2  | \
w:  mek  ey  *  *  gö nül   |  kas *  *  *  tın   | 
e4e4 ^3/4f2f2d4 =g8  | ^3/4f4=g8^1/4f2e2 e6z2  | 
w:  yâr   |  yâ   | 
e4=f4 e4d4 d2c2B2{e}dc  | {d}c12z4 =f3=ge2g2  | \
w:  câ  |  *  nım   Ter   | 
e2d2d2c2 c6z2 d3ed2e2  | 
w:  dil *  *  *  li  ter   | 
c2B2B2A2 A6z2 e8  | e4e2=f2 d4a3=g g2f2e2d2  | \
w:  dil *  *  *  li  ter   |  dil *  *  li  te  *  nen   | 
e2=f2e2d2 c2B2{d}c2d2 c2B2B2A2  | 
w:  te  *  nen  *  *  *  *  tâ  *  dir    | 
A8 a3gf2g2 a8  | A4a8a4 =b4{d'}=c'2b2  | \
w:  ney   SAZ  |  Dem_ i  vi sâ  | 
=b2=c'2b2a2 a3gf2g2 a6z2  | 
w:  li  *  o  *  şû *  *  *  ha   | 
=b2=c'2b2a2 g2f2f2e2 b4a2g2  | g3f{g}f4 f3eg2fe e6z2  | 
w:  i *  tâ *  *  *  bı  *  ney  |  ler *  *  *  *  *  sin   | 
e4e4 ^3/4f2f2d4 =g8  | ^3/4f4=g8^1/4f2e2 e6z2  | \
w:  yâr   |  yâ   | 
e4=f4 e4d4 d2c2B2{e}dc  | 
w:  câ  | 
{d}c12z4 =f3=ge2g2  | e2d2d2c2 c6z2 d3ed2e2  | \
w:  *  nım   Ter   |  dil *  *  *  li  ter   | 
c2B2B2A2 A6z2 e8  | 
w:  dil *  *  *  li  ter   | 
e4e2=f2 d4a3=g g2f2e2d2  | e2=f2e2d2 c2B2{d}c2d2 c2B2B2A2  | 
w:  dil *  *  li  te  *  nen   |  te  *  nen  *  *  *  *  tâ  *  dir    | 
A4a8a4 =b4{d'}=c'2b2  | =b2=c'2b2a2 a3gf2g2 a6z2  | \
w:  O  mâh_ ı  pâ  |  re *  yi  *  gör  *  *  *  â  | 
=b2=c'2b2a2 g2f2f2e2 b4a2g2  | 
w:  fi *  tâ *  *  *  bı  *  ney  | 
g3f{g}f4 f3eg2fe e6z2  | e4e4 ^3/4f2f2d4 =g8  | \
w:  ler *  *  *  *  *  sin   |  yâr   | 
^3/4f4=g8^1/4f2e2 e6z2  | 
w:  yâ   | 
e4=f4 e4d4 d2c2B2{e}dc  | {d}c12z4 =f3=ge2g2  | \
w:  câ  |  *  nım   Ter   | 
e2d2d2c2 c6z2 d3ed2e2  | 
w:  dil *  *  *  li  ter   | 
c2B2B2A2 A6z2 e8  | e4e2f2 d4a3=g g2f2e2d2  | \
w:  dil *  *  *  li  ter   |  dil *  *  li  te  *  nen   | 
e2f2e2d2 c2B2{d}c2d2 c2B2B2A2  | 
w:  te  *  nen  *  *  *  *  tâ  *  dir   | 
A8 z16  | |


